src/assets/images/icon/targeting/visibility.svg

<svg xmlns="http://www.w3.org/2000/svg" viewBox="0 0 28 28" enable-background="new 0 0 28 28"><g><path d="M27 2H1c-.5 0-1 .5-1 1v17c0 .5.5 1 1 1h11v1c0 2-2 2-2 2H6.4c-.2 0-.4.2-.4.4V26h16v-1.6c0-.2-.2-.4-.4-.4H18s-2 0-2-2v-1h11c.5 0 1-.5 1-1V3c0-.5-.5-1-1-1zm-1 18h-1v-1h1v1zm0-2H2V4h24v14zM24 11.4S20.6 6 14 6 4 11.4 4 11.4 8.8 16 14 16s10-4.6 10-4.6zm-4.7-1.8c1.4.6 2.5 1.3 3.1 1.8-.8.6-2.5 1.8-4.6 2.6 1-.9 1.6-2.1 1.6-3.5 0-.3 0-.6-.1-.9zm-5.9 2.1l-.5.4c-.4-.2-.6-.5-.8-.9l.5-.5c.1.4.4.8.8 1zm-7.5-.3c.5-.5 1.5-1.1 2.8-1.7-.1.3-.1.6-.1.9 0 1.3.6 2.5 1.5 3.4-1.9-.8-3.5-1.9-4.2-2.6zm4.1-.8c0-.5.1-1 .4-1.5.7-.2 1.4-.4 2.1-.5-.7.4-1.2 1.2-1.2 2 0 1.4 1.2 2.4 2.7 2.4 1.5 0 2.7-1.1 2.7-2.4 0-.8-.5-1.6-1.2-2 .8 0 1.5.2 2.1.4.2.5.4 1 .4 1.5 0 2-1.8 3.7-4 3.7s-4-1.6-4-3.6z"/></g></svg>

<?xml version="1.0" encoding="utf-8"?>
<!-- Generator: Adobe Illustrator 18.1.1, SVG Export Plug-In . SVG Version: 6.00 Build 0)  -->
<svg version="1.1" id="Layer_1" xmlns="http://www.w3.org/2000/svg" xmlns:xlink="http://www.w3.org/1999/xlink" x="0px" y="0px"
	 viewBox="0 0 28 28" enable-background="new 0 0 28 28" xml:space="preserve">
<g id="Visibility">
	<path d="M27,2H1C0.5,2,0,2.5,0,3v17c0,0.5,0.5,1,1,1h11c0,0.2,0,0.5,0,1c0,2-2,2-2,2H6.4C6.2,24,6,24.2,6,24.4V26h16v-1.6
		c0-0.2-0.2-0.4-0.4-0.4H18c0,0-2,0-2-2c0-0.5,0-0.8,0-1h11c0.5,0,1-0.5,1-1V3C28,2.5,27.5,2,27,2z M26,20h-1v-1h1V20z M26,18H2V4
		h24V18z"/>
	<path d="M24,11.4c0,0-3.4-5.4-10-5.4C7.4,6,4,11.4,4,11.4S8.8,16,14,16C19.2,16,24,11.4,24,11.4z M19.3,9.6
		c1.4,0.6,2.5,1.3,3.1,1.8c-0.8,0.6-2.5,1.8-4.6,2.6c1-0.9,1.6-2.1,1.6-3.5C19.4,10.2,19.4,9.9,19.3,9.6z M13.4,11.7l-0.5,0.4
		c-0.4-0.2-0.6-0.5-0.8-0.9l0.5-0.5C12.7,11.1,13,11.5,13.4,11.7z M5.9,11.4c0.5-0.5,1.5-1.1,2.8-1.7c-0.1,0.3-0.1,0.6-0.1,0.9
		c0,1.3,0.6,2.5,1.5,3.4C8.2,13.2,6.6,12.1,5.9,11.4z M10,10.6c0-0.5,0.1-1,0.4-1.5c0.7-0.2,1.4-0.4,2.1-0.5c-0.7,0.4-1.2,1.2-1.2,2
		c0,1.4,1.2,2.4,2.7,2.4c1.5,0,2.7-1.1,2.7-2.4c0-0.8-0.5-1.6-1.2-2C16.3,8.6,17,8.8,17.6,9c0.2,0.5,0.4,1,0.4,1.5
		c0,2-1.8,3.7-4,3.7C11.8,14.2,10,12.6,10,10.6z"/>
</g>
</svg>
